X: 590
T: Nao wugeng
%%abc-version 2.0
%%abcx-abcm2ps-target-version 5.9.1 (29 Sep 2008)
%%abc-creator hum2abc beta
%%abcx-conversion-date 2013/10/02 07:52:30
%%abc-edited-by Helmut Schaffrath
%%humdrum-veritas 186395158
%%humdrum-veritas-data 3196475130
%%continueall 1
%%barnumbers 0
L: 1/8
M: 2/4
K: Bb
g2g b [I:setbarnb 1]| 
g f e c | 
f2g2 | 
c' f' e' f' | 
e' c' b c' | 
g2g b | 
g f e c | 
f2g b | 
f2g2 | 
c'2e' c' | 
b3c' | 
f'3e' | 
c'2c'2 | 
g2g b | 
g f e c | 
f f g b | 
f2g2 | 
b gf2 | 
g2z2 | 
c'4 | 
f'c'2b | 
g2b2 | 
g2f2 | 
ff2g | 
d c B B | 
c3f | 
c4 |]  



